icons/lines/wallet-minus.svg

<svg xmlns="http://www.w3.org/2000/svg" width="24" height="24" viewBox="0 0 24 24" fill="none" stroke="currentColor" stroke-width="2" stroke-linecap="round" stroke-linejoin="round" >
  <path d="M14.2617 15.998H9.26172" stroke-miterlimit="10"/>
  <path d="M12.66 2.51814L12.63 2.58814L9.72996 9.31814H6.87996C6.19996 9.31814 5.54996 9.45814 4.95996 9.70814L6.70996 5.52814L6.74996 5.42814L6.81996 5.26814C6.83996 5.20814 6.85996 5.14814 6.88996 5.09814C8.19996 2.06814 9.67996 1.37814 12.66 2.51814Z"/>
  <path d="M18.05 9.51813C17.6 9.37813 17.12 9.31813 16.64 9.31813H9.72998L12.63 2.58813L12.66 2.51813C12.81 2.56813 12.95 2.63813 13.1 2.69813L15.31 3.62813C16.54 4.13813 17.4 4.66813 17.92 5.30813C18.02 5.42813 18.1 5.53813 18.17 5.66813C18.26 5.80813 18.33 5.94813 18.37 6.09813C18.41 6.18813 18.44 6.27813 18.46 6.35813C18.73 7.19813 18.57 8.22813 18.05 9.51813Z"/>
  <path d="M21.5217 14.1984V16.1484C21.5217 16.3484 21.5117 16.5484 21.5017 16.7484C21.3117 20.2384 19.3617 21.9984 15.6617 21.9984H7.86172C7.62172 21.9984 7.38172 21.9784 7.15172 21.9484C3.97172 21.7384 2.27172 20.0384 2.06172 16.8584C2.03172 16.6284 2.01172 16.3884 2.01172 16.1484V14.1984C2.01172 12.1884 3.23172 10.4584 4.97172 9.70836C5.57172 9.45836 6.21172 9.31836 6.89172 9.31836H16.6517C17.1417 9.31836 17.6217 9.38836 18.0617 9.51836C20.0517 10.1284 21.5217 11.9884 21.5217 14.1984Z"/>
  <path d="M6.71 5.52814L4.96 9.70814C3.22 10.4581 2 12.1881 2 14.1981V11.2681C2 8.42814 4.02 6.05814 6.71 5.52814Z"/>
  <path d="M21.5186 11.2677V14.1977C21.5186 11.9977 20.0586 10.1277 18.0586 9.52766C18.5786 8.22766 18.7286 7.20766 18.4786 6.35766C18.4586 6.26766 18.4286 6.17766 18.3886 6.09766C20.2486 7.05766 21.5186 9.02766 21.5186 11.2677Z"/>
  </svg>

<svg xmlns="http://www.w3.org/2000/svg" width="24" height="24" viewBox="0 0 24 24" fill="none" stroke="currentColor" stroke-width="2" stroke-linecap="round" stroke-linejoin="round">
  <path d="M12.66 2.518c-2.98-1.14-4.46-.45-5.77 2.58a1 1 0 0 0-.07.17l-1.86 4.44A4.89 4.89 0 0 0 2 14.198v-2.93a5.85 5.85 0 0 1 4.71-5.74" />
  <path d="M14.262 15.998h-5" />
  <path d="M21.519 14.198a4.88 4.88 0 0 0-3.46-4.67c.52-1.3.67-2.32.42-3.17a1 1 0 0 0-.09-.26 5.82 5.82 0 0 1 3.13 5.17z" />
  <path d="M21.522 16.148a12 12 0 0 1-.02.6c-.19 3.49-2.14 5.25-5.84 5.25h-7.8a6 6 0 0 1-.71-.05c-3.18-.21-4.88-1.91-5.09-5.09a6 6 0 0 1-.05-.71v-1.95a4.89 4.89 0 0 1 2.96-4.49 5 5 0 0 1 1.92-.39h9.76a5 5 0 0 1 1.41.2 5 5 0 0 1 3.46 4.68z" />
  <path d="m9.73 9.318 2.9-6.73.03-.07a8 8 0 0 1 .44.18l2.21.93c1.23.51 2.09 1.04 2.61 1.68a2 2 0 0 1 .25.36 1.5 1.5 0 0 1 .2.43 1.6 1.6 0 0 1 .09.26c.27.84.11 1.87-.41 3.16a4.8 4.8 0 0 0-1.41-.2H6.88a5 5 0 0 0-1.92.39" />
</svg>
